!! Isochronous pitch passage.
!! Treble-line.
!! From Tchaikovsky, Romeo and Juliet, Figure "O",
!! First violins.
!! 4/4 meter
**kern	**metpos
*M4/4	*M4/4
*tb16	*tb16
=1	=1
16r	1
16r	5
16B	4
16c#	5
16d	3
16c#	5
16B	4
16A#	5
16B	2
16A#	5
16B	4
16c#	5
16d	3
16e	5
16f#	4
16g	5
=2	=2
16f#	1
16e	5
16d	4
16c#	5
16d	3
16e	5
16e#	4
16f#	5
16g#	2
16f#	5
16g#	4
16a#	5
16b	3
16cc#	5
16dd	4
16een	5
=3	=3
16dd	1
16cc#	5
16b	4
16cc#	5
16dd	3
16cc#	5
16b	4
16a#	5
16b	2
16a#	5
16b	4
16cc#	5
16dd	3
16ee	5
16ff#	4
16ggn	5
=4	=4
16ff#	1
16ee	5
16dd	4
16cc#	5
16dd	3
16ee	5
16ee#	4
16ff#	5
16gg#	2
16ff#	5
16gg#	4
16aa#	5
16bb	3
16ccc#	5
16ddd	4
16eeen	5
=5	=5
16ddd	1
16ccc#	5
16bb	4
16ccc#	5
16ddd	3
16eee	5
16fff#	4
16ggg	5
16fff#	2
16eee	5
16ddd	4
16ccc#	5
16ddd	3
16eee	5
16fff#	4
16ggg#	5
=6	=6
16fff#	1
16eee	5
16ddd	4
16ccc#	5
16ddd	3
16eee	5
16fff#	4
16ggg	5
16fff#	2
16eee	5
16ddd	4
16ccc#	5
16ddd	3
16eee	5
16fff#	4
16ggg#	5
=7	=7
16fff#	1
16eee	5
16ddd	4
16ccc#	5
16ddd	3
16ccc#	5
16bb	4
16aa#	5
16bb	2
16aan	5
16gg	4
16ff#	5
16gg	3
16ff#	5
16ee	4
16dd	5
=8	=8
16ee	1
16dd	5
16cc#	4
16b	5
16a#	3
16g#	5
16f#	4
16g#	5
16a#	2
16b	5
16cc#	4
16dd	5
16ee	3
16ff#	5
16gg#	4
16aa#	5
=9	=9
*-	*-
